X: 7923
T: Concert, The
R: reel
M: 4/4
K: Adorian
|:A2GB AE~E2|GABG ~A3B|dBAB ~G3B|d2eB dBAd|
B2GB AE~E2|GABG A2B/c/d|eaaf gedB|1 GBdB BAAG:|2 GBdB BAAd||
|:e2ag eaag|~e3f gedB|dg~g2 a2ga|bgaf gedB|
eaag e2ag|~e3f gedB|g2ge d2ge|1 dBGA BAA2:|2 dBGA BAAG||

